packages/tokens/icons/sign/size24Px.svg

<svg viewBox="0 0 24 24" fill="none" xmlns="http://www.w3.org/2000/svg" width="1em" height="1em"><path d="M11 4V3.5C11 2.94772 11.4477 2.5 12 2.5L12.5 2.5C13.0523 2.5 13.5 2.94772 13.5 3.5V4M11 12V10M11 18L11 20.5C11 21.0523 11.4477 21.5 12 21.5H12.5C13.0523 21.5 13.5 21.0523 13.5 20.5V18M13.5 12V10" stroke="currentColor" stroke-linecap="round"/><path d="M3.5 6C3.5 5.17157 4.17157 4.5 5 4.5L18.3765 4.5C18.5027 4.5 18.6243 4.54773 18.7168 4.6336L19.0541 4.27027L18.7168 4.6336L20.8706 6.6336C21.0836 6.83142 21.0836 7.16858 20.8706 7.3664L18.7168 9.3664C18.6243 9.45227 18.5027 9.5 18.3765 9.5L5 9.5C4.17157 9.5 3.5 8.82843 3.5 8L3.5 6Z" stroke="currentColor"/><path d="M20.5 14C20.5 13.1716 19.8284 12.5 19 12.5L5.62346 12.5C5.49725 12.5 5.37572 12.5477 5.28323 12.6336L4.94585 12.2703L5.28323 12.6336L3.12939 14.6336C2.91636 14.8314 2.91636 15.1686 3.12939 15.3664L5.28323 17.3664C5.37572 17.4523 5.49725 17.5 5.62346 17.5L19 17.5C19.8284 17.5 20.5 16.8284 20.5 16V14Z" stroke="currentColor"/></svg>

<svg xmlns="http://www.w3.org/2000/svg" fill="none" viewBox="0 0 24 24" width="1em" height="1em"><path stroke="currentColor" stroke-linecap="round" d="M11 4v-.5a1 1 0 0 1 1-1h.5a1 1 0 0 1 1 1V4M11 12v-2m0 8v2.5a1 1 0 0 0 1 1h.5a1 1 0 0 0 1-1V18m0-6v-2"/><path stroke="currentColor" d="M3.5 6A1.5 1.5 0 0 1 5 4.5h13.377a.5.5 0 0 1 .34.134l.337-.364-.337.364 2.154 2a.5.5 0 0 1 0 .732l-2.154 2a.5.5 0 0 1-.34.134H5A1.5 1.5 0 0 1 3.5 8V6Zm17 8a1.5 1.5 0 0 0-1.5-1.5H5.623a.5.5 0 0 0-.34.134l-.337-.364.337.364-2.154 2a.5.5 0 0 0 0 .732l2.154 2a.5.5 0 0 0 .34.134H19a1.5 1.5 0 0 0 1.5-1.5v-2Z"/></svg>
